assets/images/mail.svg

<svg fill="none" height="11" viewBox="0 0 16 11" width="16" xmlns="http://www.w3.org/2000/svg"><g fill="#fff"><path d="m15.071 1.289-3.93 4c-.0132.01329-.0206.03127-.0206.05s.0074.0367.0206.05l2.75 2.92899c.0443.04404.0794.0964.1033.15407.024.05766.0364.1195.0364.18194 0 .06245-.0124.12427-.0364.18193-.0239.05766-.059.11003-.1033.15407-.0892.08891-.2101.13883-.336.13883-.126 0-.2468-.04992-.336-.13883l-2.74-2.908c-.0141-.01405-.0331-.02193-.053-.02193s-.0389.00788-.053.02193l-.66801.679c-.27364.27962-.60033.50183-.96092.65362s-.74784.23012-1.13908.23038c-.39932-.00163-.79429-.08295-1.16176-.23921s-.70005-.38432-.97824-.67079l-.643-.65401c-.01407-.01405-.03313-.02193-.053-.02193-.01988 0-.03894.00788-.053.02193l-2.739 2.91801c-.08922.08891-.21005.13883-.336.13883-.12596 0-.24678-.04992-.336-.13883-.04427-.04404-.07939-.0964-.10336-.15406-.02397-.05767-.03631-.11951-.03631-.18195 0-.06245.01234-.12427.03631-.18193s.05909-.11002.10336-.15407l2.75-2.929c.01171-.01403.01813-.03171.01813-.04999 0-.01827-.00642-.03597-.01813-.05l-3.934004-4c-.010012-.01046-.0229422-.01766-.0371059-.02066s-.0289007-.00165-.0422897.00386-.0248077.01491-.03276444.02701c-.00795672.01209-.01208051.02631-.01183701.04078v8.01c.00079198.30979.12420705.60668.34326505.82571.219059.2191.515939.3425.825736.3433h12.86001c.3098-.0008.6067-.1242.8257-.3433.2191-.21903.3425-.51592.3433-.82571v-8.01c.0017-.01502-.0013-.03021-.0086-.04345-.0073-.01325-.0185-.0239-.0321-.03049-.0137-.00659-.029-.00878-.0439-.00629-.0149.0025-.0287.00958-.0394.02024z"/><path d="m7.59698 6.688c.26608.00075.52961-.05198.77491-.15505.24531-.10307.4674-.25439.6531-.44496l5.73101-5.832996c-.2045-.1656972-.4598-.25607421-.723-.25599666h-12.86801c-.263335-.00073281-.518805.08971966-.723004.25599666l5.731004 5.832996c.18522.19009.40667.34113.65125.44418s.50734.15604.77274.15583z"/></g></svg>

<svg width="16" height="11" viewBox="0 0 16 11" fill="none" xmlns="http://www.w3.org/2000/svg">
<path d="M15.071 1.289L11.141 5.289C11.1278 5.30229 11.1204 5.32027 11.1204 5.339C11.1204 5.35773 11.1278 5.3757 11.141 5.389L13.891 8.31799C13.9353 8.36203 13.9704 8.41439 13.9943 8.47206C14.0183 8.52972 14.0307 8.59156 14.0307 8.654C14.0307 8.71645 14.0183 8.77827 13.9943 8.83593C13.9704 8.89359 13.9353 8.94596 13.891 8.99C13.8018 9.07891 13.6809 9.12883 13.555 9.12883C13.429 9.12883 13.3082 9.07891 13.219 8.99L10.479 6.082C10.4649 6.06795 10.4459 6.06007 10.426 6.06007C10.4061 6.06007 10.3871 6.06795 10.373 6.082L9.70499 6.761C9.43135 7.04062 9.10466 7.26283 8.74407 7.41462C8.38348 7.56641 7.99623 7.64474 7.60499 7.645C7.20567 7.64337 6.8107 7.56205 6.44323 7.40579C6.07576 7.24953 5.74318 7.02147 5.46499 6.735L4.82199 6.08099C4.80792 6.06694 4.78886 6.05906 4.76899 6.05906C4.74911 6.05906 4.73005 6.06694 4.71599 6.08099L1.97699 8.999C1.88777 9.08791 1.76694 9.13783 1.64099 9.13783C1.51503 9.13783 1.39421 9.08791 1.30499 8.999C1.26072 8.95496 1.2256 8.9026 1.20163 8.84494C1.17766 8.78727 1.16532 8.72543 1.16532 8.66299C1.16532 8.60054 1.17766 8.53872 1.20163 8.48106C1.2256 8.4234 1.26072 8.37104 1.30499 8.32699L4.05499 5.39799C4.0667 5.38396 4.07312 5.36628 4.07312 5.348C4.07312 5.32973 4.0667 5.31203 4.05499 5.298L0.120986 1.298C0.110974 1.28754 0.0980438 1.28034 0.0838801 1.27734C0.0697164 1.27434 0.0549794 1.27569 0.0415904 1.2812C0.0282014 1.28671 0.0167827 1.29611 0.00882596 1.30821C0.000869235 1.3203 -0.00325455 1.33452 -0.00301105 1.34899V9.35899C-0.00221907 9.66878 0.121196 9.96567 0.340254 10.1847C0.559313 10.4038 0.856193 10.5272 1.16599 10.528H14.026C14.3358 10.5272 14.6327 10.4038 14.8517 10.1847C15.0708 9.96567 15.1942 9.66878 15.195 9.35899V1.34899C15.1967 1.33397 15.1937 1.31878 15.1864 1.30554C15.1791 1.29229 15.1679 1.28164 15.1543 1.27505C15.1406 1.26846 15.1253 1.26627 15.1104 1.26876C15.0955 1.27126 15.0817 1.27834 15.071 1.289Z" fill="white"/>
<path d="M7.59698 6.688C7.86306 6.68875 8.12659 6.63602 8.37189 6.53295C8.6172 6.42988 8.83929 6.27856 9.02499 6.08799L14.756 0.254994C14.5515 0.0892968 14.2962 -0.00108021 14.033 -0.00100266H1.16499C0.901655 -0.00173547 0.646185 0.088717 0.441986 0.254994L6.17299 6.08799C6.35821 6.27808 6.57966 6.42912 6.82424 6.53217C7.06882 6.63522 7.33158 6.68821 7.59698 6.688Z" fill="white"/>
</svg>
